lib/svgs/checkbox.svg

<svg xmlns="http://www.w3.org/2000/svg" viewBox="0 0 20 20">
    <path fill="#000" fill-rule="evenodd" d="M15 3H5c-1.1 0-2 .9-2 2v10c0 1.1.9 2 2 2h10c1.1 0 2-.9 2-2V5c0-1.1-.9-2-2-2m0 1.2c.434 0 .8.366.8.8v10a.81.81 0 0 1-.8.8H5a.81.81 0 0 1-.8-.8V5c0-.434.366-.8.8-.8h10"/>
</svg>

<svg xmlns="http://www.w3.org/2000/svg" viewBox="0 0 20 20">
    <path fill="#000" fill-rule="evenodd" d="M15,3 L5,3 C3.9,3 3,3.9 3,5 L3,15 C3,16.1 3.9,17 5,17 L15,17 C16.1,17 17,16.1 17,15 L17,5 C17,3.9 16.1,3 15,3 L15,3 L15,3 L15,3 Z M15,4.2 C15.434,4.2 15.8,4.566 15.8,5 L15.8,15 C15.8,15.434 15.434,15.8 15,15.8 L5,15.8 C4.566,15.8 4.2,15.434 4.2,15 L4.2,5 C4.2,4.566 4.566,4.2 5,4.2 L15,4.2 L15,4.2 L15,4.2 L15,4.2 Z"/>
</svg>
